static/img/in-field/accordion.svg

<svg width="961" height="235" viewBox="0 0 961 235" fill="none" xmlns="http://www.w3.org/2000/svg">
<rect width="961" height="235" fill="#F1F1F6"/>
<g clip-path="url(#clip0_4767_76222)">
<rect x="109.5" y="45.5" width="742" height="144" rx="4" fill="#A3A6B1"/>
<mask id="path-3-inside-1_4767_76222" fill="white">
<path d="M109.5 45.5H851.5V117.5H109.5V45.5Z"/>
</mask>
<path d="M109.5 45.5H851.5V117.5H109.5V45.5Z" fill="white"/>
<path fill-rule="evenodd" clip-rule="evenodd" d="M157.5 91.5H155.5V72.5H151.5V69.5H144.5V75H140V77.5H136.5V91.5H133.5V93.5H157.5V91.5ZM154 91.5H151.5V87.5H147.5V91.5H145.5V74H154V91.5ZM144.5 91.5V79H138V91.5H144.5ZM145.5 72.5V71H150V72.5H145.5ZM146.5 78.5H152.5V79.5H146.5V78.5ZM152.5 75.5H146.5V76.5H152.5V75.5ZM139.5 81.5H143.5V82.5H139.5V81.5ZM143.5 84.5H139.5V85.5H143.5V84.5ZM139.5 87.5H143.5V88.5H139.5V87.5ZM152.5 81.5H146.5V82.5H152.5V81.5ZM146.5 84.5H152.5V85.5H146.5V84.5ZM150.5 91.5H148.5V88.5H150.5V91.5Z" fill="#363545"/>
<path d="M188.493 90.5H186.667V76.417H181.693V74.7949H193.467V76.417H188.493V90.5ZM197.605 90.5H195.822V78.7266H197.605V90.5ZM195.672 75.5361C195.672 75.1279 195.772 74.8307 195.973 74.6445C196.173 74.4512 196.424 74.3545 196.725 74.3545C197.011 74.3545 197.258 74.4512 197.466 74.6445C197.674 74.8379 197.777 75.1351 197.777 75.5361C197.777 75.9372 197.674 76.238 197.466 76.4385C197.258 76.6318 197.011 76.7285 196.725 76.7285C196.424 76.7285 196.173 76.6318 195.973 76.4385C195.772 76.238 195.672 75.9372 195.672 75.5361ZM205.439 89.2432C205.755 89.2432 206.059 89.2217 206.353 89.1787C206.646 89.1286 206.879 89.0785 207.051 89.0283V90.3926C206.857 90.4857 206.571 90.5609 206.191 90.6182C205.819 90.6826 205.482 90.7148 205.182 90.7148C202.904 90.7148 201.766 89.5153 201.766 87.1162V80.1123H200.079V79.2529L201.766 78.5117L202.518 75.998H203.549V78.7266H206.965V80.1123H203.549V87.041C203.549 87.75 203.717 88.2943 204.054 88.6738C204.39 89.0534 204.852 89.2432 205.439 89.2432ZM211.447 90.5H209.664V73.7852H211.447V90.5ZM220.452 90.7148C218.712 90.7148 217.337 90.1849 216.327 89.125C215.325 88.0651 214.823 86.5934 214.823 84.71C214.823 82.8122 215.289 81.3047 216.22 80.1875C217.158 79.0703 218.415 78.5117 219.99 78.5117C221.465 78.5117 222.633 78.9987 223.492 79.9727C224.352 80.9395 224.781 82.2178 224.781 83.8076V84.9355H216.671C216.707 86.3177 217.054 87.3669 217.713 88.083C218.379 88.7992 219.313 89.1572 220.517 89.1572C221.784 89.1572 223.037 88.8923 224.276 88.3623V89.9521C223.646 90.2243 223.048 90.4176 222.482 90.5322C221.924 90.654 221.247 90.7148 220.452 90.7148ZM219.969 80.0049C219.023 80.0049 218.268 80.3128 217.702 80.9287C217.144 81.5446 216.814 82.3968 216.714 83.4854H222.869C222.869 82.361 222.618 81.5016 222.117 80.9072C221.616 80.3057 220.9 80.0049 219.969 80.0049Z" fill="#252A2E"/>
<path d="M828.95 74.05L826.45 71.55L819.5 78.45L812.55 71.55L810.05 74.05L819.5 83.45L828.95 74.05Z" fill="#252A2E"/>
<path d="M109.5 45.5V44.5H108.5V45.5H109.5ZM851.5 45.5H852.5V44.5H851.5V45.5ZM109.5 46.5H851.5V44.5H109.5V46.5ZM850.5 45.5V117.5H852.5V45.5H850.5ZM110.5 117.5V45.5H108.5V117.5H110.5Z" fill="#CBCDD6" mask="url(#path-3-inside-1_4767_76222)"/>
<rect x="110" y="118" width="741" height="71" fill="white"/>
<path fill-rule="evenodd" clip-rule="evenodd" d="M145.5 140.167C138.14 140.167 132.167 146.14 132.167 153.5C132.167 160.86 138.14 166.833 145.5 166.833C152.86 166.833 158.833 160.86 158.833 153.5C158.833 146.14 152.86 140.167 145.5 140.167ZM144.167 164.073C138.9 163.42 134.833 158.94 134.833 153.5C134.833 152.673 134.94 151.887 135.113 151.113L141.5 157.5V158.833C141.5 160.3 142.7 161.5 144.167 161.5V164.073ZM153.367 160.687C153.02 159.607 152.033 158.833 150.833 158.833H149.5V154.833C149.5 154.1 148.9 153.5 148.167 153.5H140.167V150.833H142.833C143.567 150.833 144.167 150.233 144.167 149.5V146.833H146.833C148.3 146.833 149.5 145.633 149.5 144.167V143.62C153.407 145.207 156.167 149.033 156.167 153.5C156.167 156.273 155.1 158.793 153.367 160.687Z" fill="#363545"/>
<path d="M188.493 162.5H186.667V148.417H181.693V146.795H193.467V148.417H188.493V162.5ZM197.605 162.5H195.822V150.727H197.605V162.5ZM195.672 147.536C195.672 147.128 195.772 146.831 195.973 146.645C196.173 146.451 196.424 146.354 196.725 146.354C197.011 146.354 197.258 146.451 197.466 146.645C197.674 146.838 197.777 147.135 197.777 147.536C197.777 147.937 197.674 148.238 197.466 148.438C197.258 148.632 197.011 148.729 196.725 148.729C196.424 148.729 196.173 148.632 195.973 148.438C195.772 148.238 195.672 147.937 195.672 147.536ZM205.439 161.243C205.755 161.243 206.059 161.222 206.353 161.179C206.646 161.129 206.879 161.078 207.051 161.028V162.393C206.857 162.486 206.571 162.561 206.191 162.618C205.819 162.683 205.482 162.715 205.182 162.715C202.904 162.715 201.766 161.515 201.766 159.116V152.112H200.079V151.253L201.766 150.512L202.518 147.998H203.549V150.727H206.965V152.112H203.549V159.041C203.549 159.75 203.717 160.294 204.054 160.674C204.39 161.053 204.852 161.243 205.439 161.243ZM211.447 162.5H209.664V145.785H211.447V162.5ZM220.452 162.715C218.712 162.715 217.337 162.185 216.327 161.125C215.325 160.065 214.823 158.593 214.823 156.71C214.823 154.812 215.289 153.305 216.22 152.188C217.158 151.07 218.415 150.512 219.99 150.512C221.465 150.512 222.633 150.999 223.492 151.973C224.352 152.939 224.781 154.218 224.781 155.808V156.936H216.671C216.707 158.318 217.054 159.367 217.713 160.083C218.379 160.799 219.313 161.157 220.517 161.157C221.784 161.157 223.037 160.892 224.276 160.362V161.952C223.646 162.224 223.048 162.418 222.482 162.532C221.924 162.654 221.247 162.715 220.452 162.715ZM219.969 152.005C219.023 152.005 218.268 152.313 217.702 152.929C217.144 153.545 216.814 154.397 216.714 155.485H222.869C222.869 154.361 222.618 153.502 222.117 152.907C221.616 152.306 220.9 152.005 219.969 152.005Z" fill="#252A2E"/>
<path d="M828.95 146.05L826.45 143.55L819.5 150.45L812.55 143.55L810.05 146.05L819.5 155.45L828.95 146.05Z" fill="#252A2E"/>
<rect x="110" y="118" width="741" height="71" stroke="#CBCDD6"/>
</g>
<rect x="110" y="46" width="741" height="143" rx="3.5" stroke="#B7B9C3"/>
<defs>
<clipPath id="clip0_4767_76222">
<rect x="109.5" y="45.5" width="742" height="144" rx="4" fill="white"/>
</clipPath>
</defs>
</svg>

<svg width="961" height="235" fill="none" xmlns="http://www.w3.org/2000/svg"><path fill="#F1F1F6" d="M0 0h961v235H0z"/><g clip-path="url(#prefix__clip0_4767_76222)"><rect x="109.5" y="45.5" width="742" height="144" rx="4" fill="#A3A6B1"/><mask id="prefix__a" fill="#fff"><path d="M109.5 45.5h742v72h-742v-72z"/></mask><path d="M109.5 45.5h742v72h-742v-72z" fill="#fff"/><path fill-rule="evenodd" clip-rule="evenodd" d="M157.5 91.5h-2v-19h-4v-3h-7V75H140v2.5h-3.5v14h-3v2h24v-2zm-3.5 0h-2.5v-4h-4v4h-2V74h8.5v17.5zm-9.5 0V79H138v12.5h6.5zm1-19V71h4.5v1.5h-4.5zm1 6h6v1h-6v-1zm6-3h-6v1h6v-1zm-13 6h4v1h-4v-1zm4 3h-4v1h4v-1zm-4 3h4v1h-4v-1zm13-6h-6v1h6v-1zm-6 3h6v1h-6v-1zm4 7h-2v-3h2v3z" fill="#363545"/><path d="M188.493 90.5h-1.826V76.417h-4.974v-1.622h11.774v1.622h-4.974V90.5zm9.112 0h-1.783V78.727h1.783V90.5zm-1.933-14.964c0-.408.1-.705.301-.892.2-.193.451-.29.752-.29.286 0 .533.097.741.29.208.194.311.491.311.892s-.103.702-.311.903c-.208.193-.455.29-.741.29a1.04 1.04 0 01-.752-.29c-.201-.201-.301-.502-.301-.903zm9.767 13.707c.316 0 .62-.021.914-.064.293-.05.526-.1.698-.15v1.364c-.194.093-.48.168-.86.225a5.974 5.974 0 01-1.009.097c-2.278 0-3.416-1.2-3.416-3.599v-7.004h-1.687v-.86l1.687-.74.752-2.514h1.031v2.729h3.416v1.385h-3.416v6.929c0 .709.168 1.253.505 1.633.336.38.798.57 1.385.57zm6.008 1.257h-1.783V73.785h1.783V90.5zm9.005.215c-1.74 0-3.115-.53-4.125-1.59-1.002-1.06-1.504-2.532-1.504-4.415 0-1.898.466-3.405 1.397-4.522.938-1.118 2.195-1.676 3.77-1.676 1.475 0 2.643.487 3.502 1.46.86.968 1.289 2.246 1.289 3.836v1.127h-8.11c.036 1.383.383 2.432 1.042 3.148.666.716 1.6 1.074 2.804 1.074 1.267 0 2.52-.265 3.759-.795v1.59a9.104 9.104 0 01-1.794.58c-.558.122-1.235.183-2.03.183zm-.483-10.71c-.946 0-1.701.308-2.267.924-.558.616-.888 1.468-.988 2.556h6.155c0-1.124-.251-1.983-.752-2.578-.501-.601-1.217-.902-2.148-.902zM828.95 74.05l-2.5-2.5-6.95 6.9-6.95-6.9-2.5 2.5 9.45 9.4 9.45-9.4z" fill="#252A2E"/><path d="M109.5 45.5v-1h-1v1h1zm742 0h1v-1h-1v1zm-742 1h742v-2h-742v2zm741-1v72h2v-72h-2zm-740 72v-72h-2v72h2z" fill="#CBCDD6" mask="url(#prefix__a)"/><path fill="#fff" d="M110 118h741v71H110z"/><path fill-rule="evenodd" clip-rule="evenodd" d="M145.5 140.167c-7.36 0-13.333 5.973-13.333 13.333s5.973 13.333 13.333 13.333 13.333-5.973 13.333-13.333-5.973-13.333-13.333-13.333zm-1.333 23.906c-5.267-.653-9.334-5.133-9.334-10.573 0-.827.107-1.613.28-2.387l6.387 6.387v1.333c0 1.467 1.2 2.667 2.667 2.667v2.573zm9.2-3.386a2.647 2.647 0 00-2.534-1.854H149.5v-4c0-.733-.6-1.333-1.333-1.333h-8v-2.667h2.666c.734 0 1.334-.6 1.334-1.333v-2.667h2.666c1.467 0 2.667-1.2 2.667-2.666v-.547c3.907 1.587 6.667 5.413 6.667 9.88 0 2.773-1.067 5.293-2.8 7.187z" fill="#363545"/><path d="M188.493 162.5h-1.826v-14.083h-4.974v-1.622h11.774v1.622h-4.974V162.5zm9.112 0h-1.783v-11.773h1.783V162.5zm-1.933-14.964c0-.408.1-.705.301-.891.2-.194.451-.291.752-.291.286 0 .533.097.741.291.208.193.311.49.311.891s-.103.702-.311.902a1.05 1.05 0 01-.741.291c-.301 0-.552-.097-.752-.291-.201-.2-.301-.501-.301-.902zm9.767 13.707c.316 0 .62-.021.914-.064.293-.05.526-.101.698-.151v1.365c-.194.093-.48.168-.86.225a5.916 5.916 0 01-1.009.097c-2.278 0-3.416-1.2-3.416-3.599v-7.004h-1.687v-.859l1.687-.741.752-2.514h1.031v2.729h3.416v1.385h-3.416v6.929c0 .709.168 1.253.505 1.633.336.379.798.569 1.385.569zm6.008 1.257h-1.783v-16.715h1.783V162.5zm9.005.215c-1.74 0-3.115-.53-4.125-1.59-1.002-1.06-1.504-2.532-1.504-4.415 0-1.898.466-3.405 1.397-4.522.938-1.118 2.195-1.676 3.77-1.676 1.475 0 2.643.487 3.502 1.461.86.966 1.289 2.245 1.289 3.835v1.128h-8.11c.036 1.382.383 2.431 1.042 3.147.666.716 1.6 1.074 2.804 1.074 1.267 0 2.52-.265 3.759-.795v1.59a9.077 9.077 0 01-1.794.58c-.558.122-1.235.183-2.03.183zm-.483-10.71c-.946 0-1.701.308-2.267.924-.558.616-.888 1.468-.988 2.556h6.155c0-1.124-.251-1.983-.752-2.578-.501-.601-1.217-.902-2.148-.902zM828.95 146.05l-2.5-2.5-6.95 6.9-6.95-6.9-2.5 2.5 9.45 9.4 9.45-9.4z" fill="#252A2E"/><path stroke="#CBCDD6" d="M110 118h741v71H110z"/></g><rect x="110" y="46" width="741" height="143" rx="3.5" stroke="#B7B9C3"/><defs><clipPath id="prefix__clip0_4767_76222"><rect x="109.5" y="45.5" width="742" height="144" rx="4" fill="#fff"/></clipPath></defs></svg>
